Yaru++/actions/scalable/document-open.svg

<svg height="256" viewBox="0 0 67.73 67.73" width="256" xmlns="http://www.w3.org/2000/svg" xmlns:xlink="http://www.w3.org/1999/xlink"><linearGradient id="a"><stop offset="0" stop-color="#fff"/><stop offset="1" stop-color="#fff" stop-opacity=".203922"/></linearGradient><radialGradient id="b" cx="148" cy="39.683556" gradientTransform="matrix(.26457031 0 0 .06723143 -6.423767 23.463945)" gradientUnits="userSpaceOnUse" r="112" xlink:href="#a"/><radialGradient id="c" cx="152" cy="-.12591" gradientTransform="matrix(.26457031 0 0 .06959366 -6.423767 8.149909)" gradientUnits="userSpaceOnUse" r="112" xlink:href="#a"/><linearGradient id="d" gradientUnits="userSpaceOnUse" x1="38.02404264173" x2="38.02404264173" y1="20.84052223932" y2="61.05520808"><stop offset="0" stop-color="#f3994a"/><stop offset="1" stop-color="#f6b069"/></linearGradient><clipPath id="e"><path d="m78.994141 52c-35.36853 0-38.994141 1.999146-38.994141 37.296875v50.703125h224v-31.07812c0-35.297735-3.62561-40.92188-38.99414-40.92188h-87.00586l-16-16z"/></clipPath><filter id="f" color-interpolation-filters="sRGB" height="1.136364" width="1.107143" x="-.053571" y="-.068182"><feGaussianBlur stdDeviation="5"/></filter><linearGradient id="g" gradientUnits="userSpaceOnUse" x1="236.72" x2="20.72" y1="213.228801" y2="13.228801"><stop offset="0"/><stop offset=".1589853" stop-opacity=".4329"/><stop offset=".19443204" stop-opacity=".099567"/><stop offset="1" stop-opacity="0"/></linearGradient><filter id="h" color-interpolation-filters="sRGB" height="1.1272" width="1.113571" x="-.056786" y="-.0636"><feGaussianBlur stdDeviation="5.3"/></filter><filter id="i" color-interpolation-filters="sRGB" height="1.02544" width="1.022714" x="-.011357" y="-.01272"><feGaussianBlur stdDeviation="1.06"/></filter><path d="m51.714141 15.228801c-35.36853 0-38.994141 1.99915-38.994141 37.29687v41.62501 9.078119 73.07812c0 35.29774 3.625611 38.92188 38.994141 38.92188h146.011719c35.36853 0 38.99414-3.62414 38.99414-38.92188v-73.07812-25.078119-6c0-35.29774-3.62561-40.92188-38.99414-40.92188h-87.00586l-16-16z" filter="url(#i)" opacity=".1" transform="matrix(.26457031 0 0 .26457031 .793711 2.524636)"/><path d="m51.714141 14.228801c-35.36853 0-38.994141 1.99915-38.994141 37.29687v41.62501 60.656239 29.5c0 35.29774 3.625611 38.92188 38.994141 38.92188h146.011719c35.36853 0 38.99414-3.62414 38.99414-38.92188v-29.5-76.656239-6c0-35.29774-3.62561-40.92188-38.99414-40.92188h-87.00586l-16-16z" filter="url(#i)" opacity=".1" transform="matrix(.26457031 0 0 .26457031 .793711 2.524636)"/><path d="m51.714141 13.228801c-35.36853 0-38.994141 1.99915-38.994141 37.29687v41.62501 9.078119 81.07812c0 35.29774 3.625611 38.92188 38.994141 38.92188h146.011719c35.36853 0 38.99414-3.62414 38.99414-38.92188v-81.07812-25.078119-6c0-35.29774-3.62561-40.92188-38.99414-40.92188h-87.00586l-16-16z" fill="url(#g)" filter="url(#h)" opacity=".4" transform="matrix(.26457031 0 0 .26457031 .793711 2.524636)"/><path d="m14.475737 6.0245841c-9.3574627 0-10.3166917.528916-10.3166917 9.8676449v23.997355h59.2637497v-18.80516c0-9.338734-.959228-10.826715-10.316691-10.826715h-23.019168l-4.233125-4.2331249z" fill="#ec7223"/><path clip-path="url(#e)" d="m78.99353 124c-35.36853 0-38.99353 3.625-38.99353 38.92273v50.15454c0 35.29773 3.625 38.92273 38.99353 38.92273h146.01294c35.36853 0 38.99353-3.625 38.99353-38.92273v-66.15454c0-35.29773-3.625-38.92273-38.99353-38.92273h-81.25647l-16.00782 16z" fill="#903906" filter="url(#f)" opacity=".5" transform="matrix(.26457031 0 0 .26457031 -6.423767 -5.616509)"/><path d="m14.475576 27.190209c-9.3574633 0-10.3165307.959067-10.3165307 10.297799v13.269402c0 9.338731.9590674 10.297799 10.3165307 10.297799h38.630689c9.357463 0 10.31653-.959068 10.31653-10.297799v-17.502527c0-9.338732-.961901-10.067549-10.31653-10.297799h-21.49805l-4.235194 4.233125z" fill="url(#d)"/><path d="m14.475737 6.0245841c-9.3574627 0-10.3166917.528916-10.3166917 9.8676449v.52914c0-9.3387282.959229-9.8676439 10.3166917-9.8676439h11.378074l4.233125 4.2331249h23.019168c9.357463 0 10.316691 1.487981 10.316691 10.826714v-.52914c0-9.338734-.959228-10.826715-10.316691-10.826715h-23.019168l-4.233125-4.2331249z" fill="url(#c)" opacity=".4"/><path d="m63.422795 43.593568-16.9325 16.9325h6.615809c9.357463 0 10.316691-.95884 10.316691-10.297574z" fill="#fff" opacity=".1"/><path d="m4.1590453 50.228494v.529141c0 9.338734.959229 10.297574 10.3166917 10.297574h38.630367c9.357463 0 10.316691-.95884 10.316691-10.297574v-.529141c0 9.338734-.959228 10.297574-10.316691 10.297574h-38.630367c-9.3574627 0-10.3166917-.95884-10.3166917-10.297574z" fill="#491706" opacity=".2"/><path d="m31.608215 22.957084-4.235191 4.233125h-12.897287c-9.3574632 0-10.3166923.958843-10.3166923 10.297574v.52914c0-9.338731.9592291-10.297573 10.3166923-10.297573h12.897287l4.235191-4.233125h21.497889c9.357463 0 10.316691.958839 10.316691 10.297573v-.52914c0-9.338734-.959228-10.297574-10.316691-10.297574z" fill="url(#b)" opacity=".4"/></svg>

<?xml version="1.0" encoding="UTF-8" standalone="no"?>
<svg
   xmlns:dc="http://purl.org/dc/elements/1.1/"
   xmlns:cc="http://creativecommons.org/ns#"
   xmlns:rdf="http://www.w3.org/1999/02/22-rdf-syntax-ns#"
   xmlns:svg="http://www.w3.org/2000/svg"
   xmlns="http://www.w3.org/2000/svg"
   xmlns:xlink="http://www.w3.org/1999/xlink"
   xmlns:sodipodi="http://sodipodi.sourceforge.net/DTD/sodipodi-0.dtd"
   xmlns:inkscape="http://www.inkscape.org/namespaces/inkscape"
   width="256"
   height="256"
   version="1.1"
   viewBox="0 0 67.73 67.73"
   id="svg69"
   sodipodi:docname="document-open.svg"
   inkscape:version="0.92.4 (5da689c313, 2019-01-14)">
  <metadata
     id="metadata73">
    <rdf:RDF>
      <cc:Work
         rdf:about="">
        <dc:format>image/svg+xml</dc:format>
        <dc:type
           rdf:resource="http://purl.org/dc/dcmitype/StillImage" />
      </cc:Work>
    </rdf:RDF>
  </metadata>
  <sodipodi:namedview
     pagecolor="#ffffff"
     bordercolor="#666666"
     borderopacity="1"
     objecttolerance="10"
     gridtolerance="10"
     guidetolerance="10"
     inkscape:pageopacity="0"
     inkscape:pageshadow="2"
     inkscape:window-width="1920"
     inkscape:window-height="1016"
     id="namedview71"
     showgrid="false"
     inkscape:zoom="3.5784722"
     inkscape:cx="74.624715"
     inkscape:cy="141.40675"
     inkscape:window-x="0"
     inkscape:window-y="27"
     inkscape:window-maximized="1"
     inkscape:current-layer="svg69" />
  <defs
     id="defs47">
    <radialGradient
       id="radialGradient1363-3"
       cx="148"
       cy="39.684"
       r="112"
       gradientTransform="matrix(.26458333 0 0 .06723474 -6.4240841 251.45221)"
       gradientUnits="userSpaceOnUse"
       xlink:href="#linearGradient1361" />
    <linearGradient
       id="linearGradient1361">
      <stop
         style="stop-color:#ffffff"
         id="stop3"
         offset="0" />
      <stop
         style="stop-color:#ffffff;stop-opacity:.20392157"
         id="stop5"
         offset="1" />
    </linearGradient>
    <radialGradient
       id="radialGradient2373"
       cx="152"
       cy="-.126"
       r="112"
       gradientTransform="matrix(.26458333 0 0 .06959709 -6.4240831 236.13742)"
       gradientUnits="userSpaceOnUse"
       xlink:href="#linearGradient1361" />
    <linearGradient
       id="linearGradient2371"
       x1="291.31"
       x2="291.31"
       y1="138.552"
       y2="474"
       gradientTransform="matrix(.11988932 0 0 .11988932 3.1009165 232.21778)"
       gradientUnits="userSpaceOnUse">
      <stop
         style="stop-color:#fb7c38"
         id="stop9"
         offset="0" />
      <stop
         style="stop-color:#fda463"
         id="stop11"
         offset="1" />
    </linearGradient>
    <clipPath
       id="clipPath977-1">
      <path
         style="fill:#f6531e"
         d="M 78.994141,52 C 43.625611,52 40,53.999146 40,89.296875 V 140 H 264 V 108.92188 C 264,73.624145 260.37439,68 225.00586,68 H 138 L 122,52 Z"
         id="path10" />
    </clipPath>
    <filter
       id="filter989"
       width="1.107"
       height="1.136"
       x="-.05"
       y="-.07"
       style="color-interpolation-filters:sRGB">
      <feGaussianBlur
         id="feGaussianBlur17"
         stdDeviation="5" />
    </filter>
    <linearGradient
       id="linearGradient2369"
       x1="264"
       x2="48"
       y1="252"
       y2="52"
       gradientTransform="translate(-27.28,-38.771199)"
       gradientUnits="userSpaceOnUse">
      <stop
         style="stop-color:#000000"
         id="stop20"
         offset="0" />
      <stop
         style="stop-color:#000000;stop-opacity:.43290043"
         id="stop22"
         offset=".159" />
      <stop
         style="stop-color:#000000;stop-opacity:.0995671"
         id="stop24"
         offset=".194" />
      <stop
         style="stop-color:#000000;stop-opacity:0"
         id="stop26"
         offset="1" />
    </linearGradient>
    <filter
       id="filter959"
       width="1.023"
       height="1.025"
       x="-.01"
       y="-.01"
       style="color-interpolation-filters:sRGB">
      <feGaussianBlur
         id="feGaussianBlur29"
         stdDeviation="1.06" />
    </filter>
    <filter
       id="filter1344"
       width="1.023"
       height="1.025"
       x="-.01"
       y="-.01"
       style="color-interpolation-filters:sRGB">
      <feGaussianBlur
         id="feGaussianBlur32"
         stdDeviation="1.06" />
    </filter>
    <radialGradient
       id="radialGradient1363-3-3"
       cx="148"
       cy="39.684"
       r="112"
       fx="148"
       fy="39.684"
       gradientTransform="matrix(0.26457031,0,0,0.06723143,-6.1591973,22.934803)"
       gradientUnits="userSpaceOnUse"
       xlink:href="#linearGradient1361" />
    <radialGradient
       id="radialGradient2373-6"
       cx="152"
       cy="-.126"
       r="112"
       fx="152"
       fy="-.126"
       gradientTransform="matrix(0.26457031,0,0,0.06959366,-6.1591968,7.6207684)"
       gradientUnits="userSpaceOnUse"
       xlink:href="#linearGradient1361" />
    <linearGradient
       id="linearGradient2371-7"
       x1="291.31"
       x2="291.31"
       y1="138.552"
       y2="474"
       gradientTransform="matrix(0.11988342,0,0,0.11988342,3.3653344,3.7013254)"
       gradientUnits="userSpaceOnUse"
       xlink:href="#linearGradient3602" />
    <linearGradient
       id="linearGradient3602">
      <stop
         id="stop3597"
         offset="0"
         style="stop-color:#f3994a" />
      <stop
         id="stop3599"
         offset="1"
         style="stop-color:#f6b069" />
    </linearGradient>
    <clipPath
       id="clipPath977"
       clipPathUnits="userSpaceOnUse">
      <path
         d="M 78.994141,52 C 43.625611,52 40,53.999146 40,89.296875 V 140 H 264 V 108.92188 C 264,73.624145 260.37439,68 225.00586,68 H 138 L 122,52 Z"
         style="fill:#f6531e"
         id="path30" />
    </clipPath>
    <filter
       style="color-interpolation-filters:sRGB"
       id="filter989-5"
       width="1.107"
       height="1.136"
       x="-.05"
       y="-.07">
      <feGaussianBlur
         id="feGaussianBlur991"
         stdDeviation="5" />
    </filter>
    <linearGradient
       id="linearGradient2369-3"
       x1="264"
       x2="48"
       y1="252"
       y2="52"
       gradientTransform="translate(-27.28,-38.771199)"
       gradientUnits="userSpaceOnUse"
       xlink:href="#linearGradient1055" />
    <linearGradient
       id="linearGradient1055">
      <stop
         style="stop-color:#000000"
         id="stop1051"
         offset="0" />
      <stop
         id="stop1059"
         offset=".159"
         style="stop-color:#000000;stop-opacity:0.43290043" />
      <stop
         style="stop-color:#000000;stop-opacity:0.0995671"
         id="stop1061"
         offset=".194" />
      <stop
         style="stop-color:#000000;stop-opacity:0"
         id="stop1053"
         offset="1" />
    </linearGradient>
    <filter
       style="color-interpolation-filters:sRGB"
       id="filter1067"
       width="1.114"
       height="1.127"
       x="-.06"
       y="-.06">
      <feGaussianBlur
         id="feGaussianBlur1069"
         stdDeviation="5.3" />
    </filter>
    <filter
       style="color-interpolation-filters:sRGB"
       id="filter959-5"
       width="1.023"
       height="1.025"
       x="-.01"
       y="-.01">
      <feGaussianBlur
         id="feGaussianBlur961"
         stdDeviation="1.06" />
    </filter>
    <filter
       style="color-interpolation-filters:sRGB"
       id="filter1344-6"
       width="1.023"
       height="1.025"
       x="-.01"
       y="-.01">
      <feGaussianBlur
         id="feGaussianBlur1346"
         stdDeviation="1.06" />
    </filter>
    <clipPath
       clipPathUnits="userSpaceOnUse"
       id="clipPath977-5">
      <path
         id="path979"
         d="M 78.994141,52 C 43.625611,52 40,53.999146 40,89.296875 V 140 H 264 V 108.92188 C 264,73.624145 260.37439,68 225.00586,68 H 138 L 122,52 Z"
         style="color:#000000;display:inline;overflow:visible;visibility:visible;fill:#f6531e;fill-opacity:1;fill-rule:nonzero;stroke:none;stroke-width:1;marker:none;enable-background:accumulate"
         inkscape:connector-curvature="0" />
    </clipPath>
    <radialGradient
       inkscape:collect="always"
       xlink:href="#linearGradient1361"
       id="radialGradient1363-3-36"
       cx="148"
       cy="39.683556"
       fx="148"
       fy="39.683556"
       r="112"
       gradientTransform="matrix(0.26457031,0,0,0.06723143,-6.4237672,23.463945)"
       gradientUnits="userSpaceOnUse" />
    <radialGradient
       inkscape:collect="always"
       xlink:href="#linearGradient1361"
       id="radialGradient2373-7"
       gradientUnits="userSpaceOnUse"
       gradientTransform="matrix(0.26457031,0,0,0.06959366,-6.4237672,8.1499094)"
       cx="152"
       cy="-0.12591045"
       fx="152"
       fy="-0.12591045"
       r="112" />
    <linearGradient
       inkscape:collect="always"
       xlink:href="#linearGradient3602"
       id="linearGradient2371-5"
       gradientUnits="userSpaceOnUse"
       gradientTransform="matrix(0.11988342,0,0,0.11988342,3.100764,4.2304671)"
       x1="291.31033"
       y1="138.55173"
       x2="291.31033"
       y2="474" />
    <clipPath
       clipPathUnits="userSpaceOnUse"
       id="clipPath977-6">
      <path
         id="path979-2"
         d="M 78.994141,52 C 43.625611,52 40,53.999146 40,89.296875 V 140 H 264 V 108.92188 C 264,73.624145 260.37439,68 225.00586,68 H 138 L 122,52 Z"
         style="color:#000000;display:inline;overflow:visible;visibility:visible;fill:#f6531e;fill-opacity:1;fill-rule:nonzero;stroke:none;stroke-width:1;marker:none;enable-background:accumulate"
         inkscape:connector-curvature="0" />
    </clipPath>
    <filter
       inkscape:collect="always"
       style="color-interpolation-filters:sRGB"
       id="filter989-9"
       x="-0.053571429"
       width="1.1071429"
       y="-0.06818182"
       height="1.1363636">
      <feGaussianBlur
         inkscape:collect="always"
         stdDeviation="5"
         id="feGaussianBlur991-1" />
    </filter>
    <linearGradient
       inkscape:collect="always"
       xlink:href="#linearGradient1055-7"
       id="linearGradient2369-2"
       gradientUnits="userSpaceOnUse"
       x1="264"
       y1="252"
       x2="48"
       y2="52"
       gradientTransform="translate(-27.28,-38.771199)" />
    <linearGradient
       inkscape:collect="always"
       id="linearGradient1055-7">
      <stop
         style="stop-color:#000000;stop-opacity:1;"
         offset="0"
         id="stop1051-0" />
      <stop
         id="stop1059-9"
         offset="0.1589853"
         style="stop-color:#000000;stop-opacity:0.43290043" />
      <stop
         style="stop-color:#000000;stop-opacity:0.0995671"
         offset="0.19443204"
         id="stop1061-3" />
      <stop
         style="stop-color:#000000;stop-opacity:0;"
         offset="1"
         id="stop1053-6" />
    </linearGradient>
    <filter
       inkscape:collect="always"
       style="color-interpolation-filters:sRGB"
       id="filter1067-0"
       x="-0.056785714"
       width="1.1135714"
       y="-0.063600004"
       height="1.1272">
      <feGaussianBlur
         inkscape:collect="always"
         stdDeviation="5.3"
         id="feGaussianBlur1069-6" />
    </filter>
    <filter
       inkscape:collect="always"
       style="color-interpolation-filters:sRGB"
       id="filter959-2"
       x="-0.011357143"
       width="1.0227143"
       y="-0.01272"
       height="1.02544">
      <feGaussianBlur
         inkscape:collect="always"
         stdDeviation="1.06"
         id="feGaussianBlur961-6" />
    </filter>
    <filter
       inkscape:collect="always"
       style="color-interpolation-filters:sRGB"
       id="filter1344-1"
       x="-0.011357143"
       width="1.0227143"
       y="-0.01272"
       height="1.02544">
      <feGaussianBlur
         inkscape:collect="always"
         stdDeviation="1.06"
         id="feGaussianBlur1346-8" />
    </filter>
  </defs>
  <path
     style="color:#000000;display:inline;overflow:visible;visibility:visible;opacity:0.1;fill:#000000;fill-opacity:1;fill-rule:nonzero;stroke:none;stroke-width:1;marker:none;filter:url(#filter1344-1);enable-background:accumulate"
     d="m 51.714141,15.228801 c -35.36853,0 -38.994141,1.99915 -38.994141,37.29687 v 41.62501 9.078119 73.07812 c 0,35.29774 3.625611,38.92188 38.994141,38.92188 H 197.72586 c 35.36853,0 38.99414,-3.62414 38.99414,-38.92188 v -73.07812 -25.078119 -6 c 0,-35.29774 -3.62561,-40.92188 -38.99414,-40.92188 H 110.72 l -16,-16 z"
     id="path1339"
     inkscape:connector-curvature="0"
     transform="matrix(0.26457031,0,0,0.26457031,0.79371091,2.5246361)" />
  <path
     style="color:#000000;display:inline;overflow:visible;visibility:visible;opacity:0.1;fill:#000000;fill-opacity:1;fill-rule:nonzero;stroke:none;stroke-width:1;marker:none;filter:url(#filter959-2);enable-background:accumulate"
     d="m 51.714141,14.228801 c -35.36853,0 -38.994141,1.99915 -38.994141,37.29687 v 41.62501 60.656239 29.5 c 0,35.29774 3.625611,38.92188 38.994141,38.92188 H 197.72586 c 35.36853,0 38.99414,-3.62414 38.99414,-38.92188 v -29.5 -76.656239 -6 c 0,-35.29774 -3.62561,-40.92188 -38.99414,-40.92188 H 110.72 l -16,-16 z"
     id="path953"
     inkscape:connector-curvature="0"
     sodipodi:nodetypes="ssccssssccssccs"
     transform="matrix(0.26457031,0,0,0.26457031,0.79371091,2.5246361)" />
  <path
     inkscape:connector-curvature="0"
     id="path1049"
     d="m 51.714141,13.228801 c -35.36853,0 -38.994141,1.99915 -38.994141,37.29687 v 41.62501 9.078119 81.07812 c 0,35.29774 3.625611,38.92188 38.994141,38.92188 H 197.72586 c 35.36853,0 38.99414,-3.62414 38.99414,-38.92188 v -81.07812 -25.078119 -6 c 0,-35.29774 -3.62561,-40.92188 -38.99414,-40.92188 H 110.72 l -16,-16 z"
     style="color:#000000;display:inline;overflow:visible;visibility:visible;opacity:0.4;fill:url(#linearGradient2369-2);fill-opacity:1;fill-rule:nonzero;stroke:none;stroke-width:1;marker:none;filter:url(#filter1067-0);enable-background:accumulate"
     sodipodi:nodetypes="ssccssssccssccs"
     transform="matrix(0.26457031,0,0,0.26457031,0.79371091,2.5246361)" />
  <path
     style="color:#000000;display:inline;overflow:visible;visibility:visible;fill:#ec7223;fill-opacity:1;fill-rule:nonzero;stroke:none;stroke-width:0.26457033;marker:none;enable-background:accumulate"
     d="m 14.475737,6.0245841 c -9.3574627,0 -10.3166917,0.528916 -10.3166917,9.8676449 V 39.889584 H 63.422795 v -18.80516 c 0,-9.338734 -0.959228,-10.826715 -10.316691,-10.826715 H 30.086936 L 25.853811,6.0245841 Z"
     id="path4236"
     inkscape:connector-curvature="0"
     sodipodi:nodetypes="ssccssccs" />
  <path
     sodipodi:nodetypes="ssssssssccs"
     style="color:#000000;display:inline;overflow:visible;visibility:visible;opacity:0.5;fill:#903906;fill-opacity:1;fill-rule:nonzero;stroke:none;stroke-width:1;marker:none;filter:url(#filter989-9);enable-background:accumulate"
     d="M 78.99353,124 C 43.625,124 40,127.625 40,162.92273 v 50.15454 C 40,248.375 43.625,252 78.99353,252 H 225.00647 C 260.375,252 264,248.375 264,213.07727 V 146.92273 C 264,111.625 260.375,108 225.00647,108 H 143.75 l -16.00782,16 z"
     id="path969"
     inkscape:connector-curvature="0"
     clip-path="url(#clipPath977-6)"
     transform="matrix(0.26457031,0,0,0.26457031,-6.4237672,-5.6165089)" />
  <path
     inkscape:connector-curvature="0"
     id="rect4158"
     d="m 14.475576,27.190209 c -9.3574633,0 -10.3165307,0.959067 -10.3165307,10.297799 V 50.75741 c 0,9.338731 0.9590674,10.297799 10.3165307,10.297799 h 38.630689 c 9.357463,0 10.31653,-0.959068 10.31653,-10.297799 V 33.254883 c 0,-9.338732 -0.961901,-10.067549 -10.31653,-10.297799 h -21.49805 l -4.235194,4.233125 z"
     style="color:#000000;display:inline;overflow:visible;visibility:visible;fill:url(#linearGradient2371-5);fill-opacity:1;fill-rule:nonzero;stroke:none;stroke-width:0.26457033;marker:none;enable-background:accumulate"
     sodipodi:nodetypes="ssssssssccs" />
  <path
     style="color:#000000;display:inline;overflow:visible;visibility:visible;opacity:0.4;fill:url(#radialGradient2373-7);fill-opacity:1;fill-rule:nonzero;stroke:none;stroke-width:0.26457033;marker:none;enable-background:accumulate"
     d="m 14.475737,6.0245841 c -9.3574627,0 -10.3166917,0.528916 -10.3166917,9.8676449 v 0.52914 c 0,-9.3387282 0.959229,-9.8676439 10.3166917,-9.8676439 h 11.378074 l 4.233125,4.2331249 h 23.019168 c 9.357463,0 10.316691,1.487981 10.316691,10.826714 v -0.52914 c 0,-9.338734 -0.959228,-10.826715 -10.316691,-10.826715 H 30.086936 L 25.853811,6.0245841 Z"
     id="path993"
     inkscape:connector-curvature="0"
     sodipodi:nodetypes="sscsccscssccs" />
  <path
     style="color:#000000;display:inline;overflow:visible;visibility:visible;opacity:0.1;fill:#ffffff;fill-opacity:1;fill-rule:nonzero;stroke:none;stroke-width:0.26457033;marker:none;enable-background:accumulate"
     d="m 63.422795,43.593568 -16.9325,16.9325 h 6.615809 c 9.357463,0 10.316691,-0.95884 10.316691,-10.297574 z"
     id="path1043"
     inkscape:connector-curvature="0"
     sodipodi:nodetypes="ccssc" />
  <path
     style="color:#000000;display:inline;overflow:visible;visibility:visible;opacity:0.2;fill:#491706;fill-opacity:1;fill-rule:nonzero;stroke:none;stroke-width:0.26457033;marker:none;enable-background:accumulate"
     d="m 4.1590453,50.228494 v 0.529141 c 0,9.338734 0.959229,10.297574 10.3166917,10.297574 h 38.630367 c 9.357463,0 10.316691,-0.95884 10.316691,-10.297574 v -0.529141 c 0,9.338734 -0.959228,10.297574 -10.316691,10.297574 H 14.475737 c -9.3574627,0 -10.3166917,-0.95884 -10.3166917,-10.297574 z"
     id="path1348"
     inkscape:connector-curvature="0" />
  <path
     style="color:#000000;display:inline;overflow:visible;visibility:visible;opacity:0.4;fill:url(#radialGradient1363-3-36);fill-opacity:1;fill-rule:nonzero;stroke:none;stroke-width:0.26457033;marker:none;enable-background:accumulate"
     d="m 31.608215,22.957084 -4.235191,4.233125 H 14.475737 c -9.3574632,0 -10.3166923,0.958843 -10.3166923,10.297574 v 0.52914 c 0,-9.338731 0.9592291,-10.297573 10.3166923,-10.297573 h 12.897287 l 4.235191,-4.233125 h 21.497889 c 9.357463,0 10.316691,0.958839 10.316691,10.297573 v -0.52914 c 0,-9.338734 -0.959228,-10.297574 -10.316691,-10.297574 z"
     id="path2067-2"
     inkscape:connector-curvature="0"
     sodipodi:nodetypes="ccsscsccscssc" />
</svg>
